X: 26541
T: Mícheál's
R: polka
M: 2/4
K: Amajor
|:A2 BA/B/|cA A>B|ce ae|f/a/f/e/ cB|
A2 BA/B/|cA A>F|EF A/B/c/A/|1 BA AE:|2 BA A2||
ag/a/ ba|fa fe|cA/c/ eA|cB B2|
ag/a/ ba|fa fe|Ac e/f/e/c/|BA A2|
ag/a/ ba|fa fe|cA/c/ eA|cB Bc|
A2 BA/B/|cA A>F|EF A/B/c/A/|BA A2||

